X: 070685
T: Groves of Gneeveguilla
S: "Where's the Crack v/1" (DJ Taylor)
Z: B.Black
L: 1/8
M: 2/4
R: polka
K: Ador
E | A2 AB/d/ | ed BA | GG/F/ GA | Bd B/A/G |
A2 AB/d/ |e/f/g/e/ Bd |e/f/g/e/ dB |1 A3 :|2 A2-A ||
B/d/ | eg a/g/a | ba ga/g/ | e>f ga | ge g/e/d |
ea a/g/a | ba g2 | e/f/g/e/ dB |1 A2-A :|2 A3 ||
